X: 38
T: Sir Lawrence
C: Régis Dupuis (Tapage)
R: schottisch
M: 4/4
L: 1/8
K: Cmin
|: G2 =Bc d2 d2 | efec d2 d2| fedc edc=B | dc=BA dcBA |
 G2 =Bc d2 d2 | efec d2 d2| fedc edc=B | A=BAG G4 :|
|: G2 =Bc d2 f2  | A4 =B4 | c=BAB c2 cB | dc=BA dcBA |
 G2 =Bc d2 f2  | A4 =B4 | c=BAB c2 | A=BAG G4 :|

